X: 58
T: Pollonesse #58
M: 3/4
L: 1/16
K: Bb
Q:100
|GABc d4 gfga|bgdg bagf gfga|bgdg bagf g4|d4 c2cA B2Bd|c2cA BABG A2GD|
GABc d4 gfga|bgdg bagf gfga|bgdg bagf g4|d2de c2cd B2Bc|
BAGF GABc defg| BAGF GABc defg|BAGF G4G,4:|
|: B4cBAB cBAB|f2c2 a2c2 b4|babf gfgf edcB|B2gf edcB BAGF|GABc d4 gfga|
bgdg bagf gfga|bgdg bagf g4|d2de c2cd B2Bc| BAGF G4G,4:|
d4 c2cA B2Bd|c2cA BABG A4|d4c2cA B2Bd|BAGF G4G,4:|

